X:5653
T:Rosebud In June
O:england
S:Digital Tradition, rosebudj
N:See Carly Gewirz or Joe Hickerson of Washington, DC for sources
D:Recorded by Steeleye Span on Below the Salt
M:3/4
L:1/8
Q:1/4=100
W:It's a rosebud in June, and the violets in full bloom
W:The small birds are singing love songs from each spray.
W:
W:  Chorus:
W:  We'll pipe and we'll sing, Love,
W:  We'll dance in a ring, Love.
W:  When each lad takes his lass,
W:  All on the green grass,
W:  And it's all to plow
W:  Where the fat oxen graze low;
W:  And the lads and the lasses do sheepshearing go.
W:
W:Oh their flesh it is good, it's the best of all foods
W:And their wool it will clothe us and keep our backs from the cold.
W:
W:Here's the ewes and the lambs, here's the hogs and the rams.
W:And the fat withers too they will make a fine show.
K:D
E3/2F/ |G2 F2 E2|B4 E-D|E2 G2 FD|B,4 EF|\
G2- F2 E2|d2 B2 A-G|A3B c-A|B4 B-c|
d2 B2 e2|d-c B2 E-F|G2 F2 B2|G-F E2 EF|\
G2 F2 E2|B4 E-D|E2 G2 F-D|B,4 GA|
B3-A- G-A-|B4 E2|E2- D2 EF|G2 F2 E2|E2 B,2 GA|\
B2 A2 G2|B-c d2 B-A|G2 F2 G2|E4 ||
